X: 14052
T: Fred Finn's
R: reel
M: 4/4
K: Dmajor
|:A3F ABde|fdec d2cd|BEE2 ~G3B|AFF2 DEFG|
~A3F ABde|fdec d2cd|BAFB ABde|f/g/aeg fdd2:|
|:fdad bdaf|dfaf ffed|fbba ~b3a|fbba fee2|
fdad bdaf|dfaf ffed|BAFB ABde|f/g/aeg fdd2:|

